X:93
T:Soldier's Joy
S:American Veteran Fifer #93
C:Donated by W.A. Hopkins, Co.A.154th O.V.I. Greenville, Ohio
M:C|
L:1/8
Q:1/4=180
K:D 
%%MIDI program 72
%%MIDI transpose 8
%%MIDI ratio 3 1
FG | AFDF AFDF | A2d2d2cB | AFDF AFDF | G2E2E2FG |
AFDF AFDF | A2d2d2fg | fafd egec | d2d2d2 :|
|: de | fdfd fagf | ecec egfe | fdfd fagf | edcB A2de |
fdfd fagf | ecec egfe | fafd egec | d2d2d2 :|


